X:270
T:Lee Highway Blues
C:Traditional
N:Transcribed by Mike Stangeland and Kim Davis
R:bluegrass
L:1/8
Q:1/4=270
M:4/4
K:D
z8 |: "D"D2 DF ED FE | DE FD ED B,2 | D2 DF ED B,A, | "A"A,B, DE "D"D2 D2 | z2 DF ED FE | 
DE FD ED B,2 | D2 DF ED B,A, |1 "A"A,B, DE "D"D2 D2 :|2 "A"A,B, DE "D"D2 a2 | 
"D"zb af ed BA | Bd zB d2 f2 | ze fd fd ed | ef2e f2 a2 | zb af ed BA | Bd zB d3e | 
ze fd fd ef | "G"g3a g2 b2 | za ge g3a | g2 g4 b2 | za gf g3a | g2 g4 f2 | "D"za fe d3e | 
d2 d6 | 


